assets/svg/bag-o.svg

<?xml version="1.0" encoding="UTF-8"?>
<svg width="1000px" height="1000px" viewBox="0 0 1000 1000" version="1.1" xmlns="http://www.w3.org/2000/svg" xmlns:xlink="http://www.w3.org/1999/xlink">
    <!-- Generator: sketchtool 52.4 (67378) - http://www.bohemiancoding.com/sketch -->
    <title>bag-o</title>
    <desc>Created with sketchtool.</desc>
    <g id="新版图标" stroke="none" stroke-width="1" fill="none" fill-rule="evenodd">
        <g id="bag-o" fill="#333333" fill-rule="nonzero">
            <g id="直角-门店商品">
                <path d="M258.088255,333.333333 L223.366032,888.888889 L771.760341,888.888889 L737.038119,333.333333 L258.088255,333.333333 Z M330.89652,277.777778 C330.89652,185.730319 404.183243,111.111111 494.586996,111.111111 C584.99075,111.111111 658.277473,185.730319 658.277473,277.777778 L753.710479,277.777778 C773.675834,277.777778 790.200087,293.301507 791.445491,313.227981 L828.386078,904.277364 C829.688607,925.117836 813.849975,943.068286 793.009503,944.370815 C792.224315,944.419889 791.437786,944.444444 790.651065,944.444444 L204.475309,944.444444 C183.594172,944.444444 166.666667,927.516939 166.666667,906.635802 C166.666667,905.849082 166.691222,905.062553 166.740296,904.277364 L203.680882,313.227981 C204.926287,293.301507 221.450539,277.777778 241.415895,277.777778 L330.89652,277.777778 Z M386.452076,277.777778 L602.721917,277.777778 C602.721917,216.190976 554.08197,166.666667 494.586996,166.666667 C435.092023,166.666667 386.452076,216.190976 386.452076,277.777778 Z" id="直角-门店商品－线"></path>
            </g>
        </g>
    </g>
</svg>

<svg width="1000" height="1000" xmlns="http://www.w3.org/2000/svg"><path d="M258.088 333.333L223.366 888.89H771.76l-34.722-555.556h-478.95zm72.809-55.555c0-92.048 73.286-166.667 163.69-166.667s163.69 74.62 163.69 166.667h95.433c19.966 0 36.49 15.524 37.735 35.45l36.941 591.05c1.303 20.84-14.536 38.79-35.376 40.093-.786.049-1.572.073-2.359.073H204.475c-20.88 0-37.808-16.927-37.808-37.808 0-.787.024-1.573.073-2.359l36.94-591.049c1.246-19.926 17.77-35.45 37.736-35.45h89.48zm55.555 0h216.27c0-61.587-48.64-111.111-108.135-111.111-59.495 0-108.135 49.524-108.135 111.11z" fill="#333" fill-rule="nonzero"/></svg>
